packages/kaspersky-hexa-ui-icons/src/iconsSVGs/48/Threats.svg

<svg width="48" height="48" viewBox="0 0 48 48" fill="none" xmlns="http://www.w3.org/2000/svg">
<path fill-rule="evenodd" clip-rule="evenodd" d="M32.82 20H26V11.35C26.0008 10.8574 25.6739 10.4243 25.2 10.29C24.7287 10.1552 24.2254 10.3516 23.97 10.77L14.25 26.32C14.0453 26.6617 14.0453 27.0883 14.25 27.43C14.4477 27.7949 14.8353 28.0158 15.25 28H22V36.65C21.9992 37.1426 22.3261 37.5757 22.8 37.71C22.8994 37.7251 23.0006 37.7251 23.1 37.71C23.4794 37.7103 23.8316 37.5134 24.03 37.19L33.75 21.64C33.9547 21.2983 33.9547 20.8717 33.75 20.53C33.5541 20.2028 33.2014 20.0018 32.82 20ZM24 33.51V27.1C24 26.4925 23.5075 26 22.9 26H16.8L24 14.49V20.9C24 21.1917 24.1159 21.4715 24.3222 21.6778C24.5285 21.8841 24.8083 22 25.1 22H31.2L24 33.51ZM24 0C10.7452 0 0 10.7452 0 24C0 37.2548 10.7452 48 24 48C37.2548 48 48 37.2548 48 24C48 17.6348 45.4714 11.5303 40.9706 7.02944C36.4697 2.52856 30.3652 0 24 0ZM24 46C11.8497 46 2 36.1503 2 24C2 11.8497 11.8497 2 24 2C36.1503 2 46 11.8497 46 24C46 29.8348 43.6822 35.4305 39.5564 39.5564C35.4305 43.6822 29.8348 46 24 46Z"  fill="currentColor"/>
</svg>

<svg xmlns="http://www.w3.org/2000/svg" width="48" height="48" fill="none" viewBox="0 0 48 48"><path fill="currentColor" fill-rule="evenodd" d="M32.82 20H26v-8.65a1.1 1.1 0 0 0-.8-1.06 1.09 1.09 0 0 0-1.23.48l-9.72 15.55a1.08 1.08 0 0 0 0 1.11 1.09 1.09 0 0 0 1 .57H22v8.65a1.1 1.1 0 0 0 .8 1.06 1 1 0 0 0 .3 0 1.09 1.09 0 0 0 .93-.52l9.72-15.55a1.08 1.08 0 0 0 0-1.11 1.09 1.09 0 0 0-.93-.53M24 33.51V27.1c0-.6075-.4925-1.1-1.1-1.1h-6.1L24 14.49v6.41a1.1 1.1 0 0 0 1.1 1.1h6.1zM24 0C10.7452 0 0 10.7452 0 24s10.7452 24 24 24 24-10.7452 24-24A24 24 0 0 0 24 0m0 46C11.8497 46 2 36.1503 2 24S11.8497 2 24 2s22 9.8497 22 22a22 22 0 0 1-22 22" clip-rule="evenodd"/></svg>
